X: 30192
M: C
L: 1/16
K: D
(DEFG) |\
(G2B2)(G2B2) (F2A2)(c2F2) |  (F6D2) E2F2 (GF).E.D |\
(3(B2c2d2) (3(e2f2g2) (3(a2f2d2) (3(g2e2c2) | (e6 d2) :: z4 |\
a4 fgaf d2a2f2d2 | g4 efge c2g2e2c2 |\
dcde fefg agfe dcBA | (G2F2)(B2A2) (A2G2) (GFED) |
(3(B2c2d2) (3(e2f2g2) (3(a2f2e2) (3(g2e2c2) | [e6d6] {c}d2 :: (DEFG) |\
!p!A4 (A2G2) (G2F2F2E2) | (D2d2)(d2c2) (c2B2)(B2A2) |
(3(B2c2d2) (3(e2f2g2) (3(a2f2d2) (3(g2e2c2) | e6 d2 :|


